world_stage/static/flags/rect/ton.svg

<svg height="640" viewBox="0 0 960 640" width="960" xmlns="http://www.w3.org/2000/svg"><g transform="matrix(1.3333333 0 0 -1.3333333 0 640)"><path d="m0 0h720v480h-720z" fill="#c10000"/><path d="m0 240h340v239.999h-340z" fill="#fff"/><g fill="#c10000"><path d="m146 450h60v-180h-60z"/><path d="m86 390h180v-60h-180z"/></g></g></svg>

<?xml version="1.0" encoding="UTF-8" standalone="no"?>
<!-- Created with Inkscape (http://www.inkscape.org/) -->

<svg
   version="1.1"
   id="svg1"
   width="960"
   height="640"
   viewBox="0 0 960 640"
   sodipodi:docname="to.ai"
   xmlns:inkscape="http://www.inkscape.org/namespaces/inkscape"
   xmlns:sodipodi="http://sodipodi.sourceforge.net/DTD/sodipodi-0.dtd"
   xmlns="http://www.w3.org/2000/svg"
   xmlns:svg="http://www.w3.org/2000/svg">
  <defs
     id="defs1" />
  <sodipodi:namedview
     id="namedview1"
     pagecolor="#ffffff"
     bordercolor="#000000"
     borderopacity="0.25"
     inkscape:showpageshadow="2"
     inkscape:pageopacity="0.0"
     inkscape:pagecheckerboard="0"
     inkscape:deskcolor="#d1d1d1">
    <inkscape:page
       x="0"
       y="0"
       inkscape:label="1"
       id="page1"
       width="960"
       height="640"
       margin="0"
       bleed="0" />
  </sodipodi:namedview>
  <g
     id="layer-MC0"
     inkscape:groupmode="layer"
     inkscape:label="Layer 1">
    <path
       id="path1"
       d="M 0,0 H 720 V 480 H 0 Z"
       style="fill:#c10000;fill-opacity:1;fill-rule:nonzero;stroke:none"
       transform="matrix(1.3333333,0,0,-1.3333333,0,640)" />
    <path
       id="path2"
       d="M 0,240 H 340 V 479.999 H 0 Z"
       style="fill:#ffffff;fill-opacity:1;fill-rule:nonzero;stroke:none"
       transform="matrix(1.3333333,0,0,-1.3333333,0,640)" />
    <path
       id="path3"
       d="m 146,450 h 60 V 270 h -60 z"
       style="fill:#c10000;fill-opacity:1;fill-rule:nonzero;stroke:none"
       transform="matrix(1.3333333,0,0,-1.3333333,0,640)" />
    <path
       id="path4"
       d="M 86,390 H 266 V 330 H 86 Z"
       style="fill:#c10000;fill-opacity:1;fill-rule:nonzero;stroke:none"
       transform="matrix(1.3333333,0,0,-1.3333333,0,640)" />
  </g>
</svg>
